!!!COM: Brahms, Johannes
!!!CDT: 1833/05/07/-1897/04/03/
!!!OTL: Waltz in D Minor, Op.39 No.9
!!!ODT: 1865
!!!PDT: 1867
!!!OPS: Op. 39
!!!ONM: No. 9
!!!ENC: Craig Sapp
!!!YEN: Copyright 2001 by Craig Stuart Sapp
!!!YEC: United States of America
**kern	**kern
*k[b-]	*k[b-]
*d:	*d:
*M3/4	*M3/4
*MM160	*MM160
*>[A,A,B,B1,B,B2]	*>[A,A,B,B1,B,B2]
*>A	*>A
4r	4dd
=1	=1
4DD	4a
4F 4A 4d	4r
4r	4ff
=2	=2
4EE	4cc#
4G 4B- 4c#	4r
4r	4ee
=3	=3
4FF	4a
4F 4A 4d	4r
4r	4aa
=4	=4
4BB-	4dd
4G 4B- 4d	4r
4r	4bb-
=5	=5
4GG	4cc#
4G 4B- 4e	4r
4r	4aa
=6	=6
4FF#	4ccn
4F# 4A 4e-	4r
4r	4gg
=7	=7
4G 4B- 4d	4b-
*	*^
4C	2g	4ee-
4A 4e-	.	4a
=8	=8	=8
4DD	2f#	2a
4D 4d	.	.
*	*v	*v
=:!!:	=:!!:
*>B	*>B
4r	4dd
=9	=9
4AA-	4b-
4F 4B- 4d	4r
4r	4ff
=10	=10
4GG	4b-
4E- 4B- 4e-	4r
4r	4ee-
=11	=11
4FF	4a-
4F 4B- 4d	4r
4r	4aa-
=12	=12
4EE-	4gg
4E- 4B- 4e-	4r
4r	[4gg
=13	=13
4CC#	4gg]
4A 4en 4g	4a
4r	[4gg
=14	=14
4DD	4gg]
4A 4d 4g	4a
4r	[4gg
=15	=15
4EEn	4gg]
4A 4g	4cc#
4r	[4aa
=16	=16
4FF#	4aa]
4A 4d 4a	4dd
4r	4ddd
=17	=17
*	*^
4GG	4dd	4bb-
4d 4f	4b-	4r
4r	4ryy	4gg
=18	=18	=18
4C	4g	4ee
4B- 4c	4e	4r
4r	4ryy	4ccc
=19	=19	=19
4FF	4cc	4aa
4c 4e	4a	4r
4r	4ryy	4ff
*	*v	*v
=20	=20
*>B1	*>B1
*	*^
4BB-	4f	4dd
4A 4B-	4d	4r
4r	4ryy	4bb-
=21	=21	=21
4BBn	4dd	4gg#
4d	4f	4r
4r	4ryy	4aa
=22	=22	=22
4C#	4a	4ff#
4A	4e	4r
4r	4ryy	4gg
=23	=23	=23
4D	4a	4ee
4BB-	2g#	4ffn
4D 4d	.	4dd
=24	=24	=24
4AA	2a	2cc#
4A 4e	.	.
*	*v	*v
=25:!|	=25:|!
*>B2	*>B2
*	*^
4BB-	4f	4dd
4A	4B- 4d	4r
4r	4ryy	4ff
=26	=26	=26
4BBn	4f	4g#
4F	4d	4r
4r	4ryy	4ee
=27	=27	=27
4C#	4e	4g
4E	4A	4r
4r	4ryy	4dd
=28	=28	=28
4D	4d	4f
*^	*	*
2GG	4GG	2d	4b-
.	4E 4B-	.	4e
*v	*v	*	*
=29	=29	=29
4AAA	2c#	2e
2AA 2A	.	.
*	*v	*v
.	4r
==	==
*-	*-
